packages/design-assets/icons/24px/Data.svg

<?xml version="1.0" encoding="UTF-8"?>
<svg width="24px" height="24px" viewBox="0 0 24 24" version="1.1" xmlns="http://www.w3.org/2000/svg" xmlns:xlink="http://www.w3.org/1999/xlink">
    <!-- Generator: Sketch 54.1 (76490) - https://sketchapp.com -->
    <title>Icons/24px/Data</title>
    <desc>Created with Sketch.</desc>
    <g id="Icons/24px/Data" stroke="none" stroke-width="1" fill="none" fill-rule="evenodd">
        <path d="M4,6.52769756 L4,12 C4,12.8366463 7.5171159,14 12,14 C16.4828841,14 20,12.8366463 20,12 L20,6.52769756 C18.1751048,7.47599017 15.2701244,8 12,8 C8.7298756,8 5.82489521,7.47599017 4,6.52769756 Z M4,14.5523068 L4,20 C4,20.8366463 7.5171159,22 12,22 C16.4828841,22 20,20.8366463 20,20 L20,14.5523068 C18.1863498,15.4914452 15.29764,16 12,16 C8.70236004,16 5.81365016,15.4914452 4,14.5523068 L4,14.5523068 Z M22,4 L22,20 C22,22.5402768 17.5868833,24 12,24 C6.41311666,24 2,22.5402768 2,20 L2,4 C2,1.49324457 6.4797337,0 12,0 C17.5202663,0 22,1.49324457 22,4 Z M12,6 C16.4208592,6 20,4.80695307 20,4 C20,3.19304693 16.4208592,2 12,2 C7.5791408,2 4,3.19304693 4,4 C4,4.80695307 7.5791408,6 12,6 Z" id="i-24-data" fill="#818F99"></path>
    </g>
</svg>

<svg width="24" height="24" xmlns="http://www.w3.org/2000/svg"><path d="M4 6.528V12c0 .837 3.517 2 8 2 4.483 0 8-1.163 8-2V6.528C18.175 7.476 15.27 8 12 8c-3.27 0-6.175-.524-8-1.472zm0 8.024V20c0 .837 3.517 2 8 2 4.483 0 8-1.163 8-2v-5.448c-1.814.94-4.702 1.448-8 1.448s-6.186-.509-8-1.448zM22 4v16c0 2.54-4.413 4-10 4S2 22.54 2 20V4c0-2.507 4.48-4 10-4s10 1.493 10 4zM12 6c4.42 0 8-1.193 8-2 0-.807-3.58-2-8-2S4 3.193 4 4c0 .807 3.58 2 8 2z" fill="#818F99" fill-rule="evenodd"/></svg>
